!!!OTL: 742. Glaube, Liebe, Hoffnung.
!!!ARE: Europa, Mitteleuropa, Deutschland, Hochwald, Bruchweiler
!!!SCT: B0742
!!!TXL: @@DE
!!!YEM: Copyright 1995, estate of Helmut Schaffrath.
**kern	**text
*ICvox	*
*Ivox	*
*clefG2	*
*M3/4	*
*k[]	*
*C:	*
!LO:TX:a:t=Ruhig.	!
{8g	Ei-
8g	-nen
=1	=1
4cc	gold'-
4cc	-nen
8ee	Wan-
8cc	-der-
=2	=2
2g}	-ſtab
{8e	ich
8g	in
=3	=3
4f	mei-
8fL	-nen
8eJ	.
8f	Hän-
8g	-den
=4	=4
2e}	hab';
{8g	aus
8g	dem
=5	=5
4cc	Him-
4cc	-mel
8ee	iſt
8cc	er
=6	=6
2g}	her,
{8e	nach
8g	dem
=7	=7
4f	Him-
8fL	-mel
8eJ	.
8f	ʒei-
8g	-get
=8	=8
2e}	er.
{8g	Die-
8f	-ſer
=9	=9
4e	Stab
4e	das
8e	iſt
8f	mein
=10	=10
8aL	Glau-
8gJ	.
4g}	-be,
{8g	ſtark
8f	und
=11	=11
4e	mäch-
4e	-tig
8e	ſchütʒt
8f	er
=12	=12
2g}	mich
{8g	trennt
8g	auch
=13	=13
4cc	Leib'
4cc	und
8ee	See-
8cc	-le
=14	=14
2g}	ſich,
{8e	auf
8g	ihn
=15	=15
4f	trau'
8fL	ich
8eJ	.
8f	ſi-
8g	-cher-
=16	=16
2e}	-lich.
==	==
!!!AGN: Moral - Lied, religioes
!!!GTL: Religioese Lieder
!!!ONB: ESAC (Essen Associative Code) Database: BOEHME
!!!AMT: simple triple
!!!AIN: vox
!!!EED: Helmut Schaffrath
!!!EEV: 1.0
!!Mel. aus Bruchweiler (Hochwald), aufgeʒ. v. K. Becker 1893.
!!!URL-scan: https://archive.org/details/BoehmeVtLieder1895/page/n595/mode/2up
!!!ENC: Anna Maria Matuszewska
!!!EEV: 2024/18/07
*-	*-
